Newaita-dark/mimetypes/48/application-x-cbt.svg

<svg height="48" viewBox="0 0 48 48" width="48" xmlns="http://www.w3.org/2000/svg" xmlns:xlink="http://www.w3.org/1999/xlink"><linearGradient id="a" gradientUnits="userSpaceOnUse" x1="23.81478" x2="23.81478" y1="42.0509045" y2="44.03547050005"><stop offset="0" stop-opacity=".27451"/><stop offset="1" stop-opacity="0"/></linearGradient><linearGradient id="b"><stop offset="0" stop-opacity=".313726"/><stop offset=".222222" stop-opacity=".27451"/><stop offset="1" stop-opacity="0"/></linearGradient><radialGradient id="c" cx="450.908936" cy="189.579361" gradientTransform="matrix(.00000026 -.117199 -.210958 -.00000015 75.219128 95.392999)" gradientUnits="userSpaceOnUse" r="21.166656" xlink:href="#b"/><radialGradient id="d" cx="450.908936" cy="189.579361" gradientTransform="matrix(-.00000026 .117199 .210958 .00000015 -27.589573 -11.29122)" gradientUnits="userSpaceOnUse" r="21.166656" xlink:href="#b"/><radialGradient id="e" cx="450.908936" cy="189.579361" gradientTransform="matrix(-.00000026 -.117199 .210958 -.00000015 -27.589573 95.392999)" gradientUnits="userSpaceOnUse" r="21.166656" xlink:href="#b"/><radialGradient id="f" cx="450.908936" cy="189.579361" gradientTransform="matrix(.00000026 .117199 -.210958 .00000015 75.219126 -11.291219)" gradientUnits="userSpaceOnUse" r="21.166656" xlink:href="#b"/><linearGradient id="g" gradientTransform="matrix(.113024 0 0 .326118 -8.78102 50.462022)" gradientUnits="userSpaceOnUse" x1="306.916656" x2="305.954559" y1="-25.791676" y2="-141.414581"><stop offset="0" stop-color="#f48fb1"/><stop offset="1" stop-color="#f8bbd0"/></linearGradient><linearGradient id="h"><stop offset="0" stop-color="#ec407a"/><stop offset="1" stop-color="#f06292"/></linearGradient><linearGradient id="i" gradientTransform="matrix(4.556143 0 0 13.146184 -353.972656 2034.180176)" gradientUnits="userSpaceOnUse" x1="165.484848" x2="165.484848" xlink:href="#h" y1="-25.791672" y2="-141.414581"/><linearGradient id="j" gradientUnits="userSpaceOnUse" x1="25.7993504999" x2="25.7993504999" xlink:href="#h" y1="42.0509015" y2="4.3441580001"/><path d="m11.90625 42.050781h23.816406v1.984375h-23.816406zm0 0" fill="url(#a)"/><path d="m35.722656 42.050781h3.96875v-1.984375h-3.96875zm0 0" fill="url(#c)"/><path d="m11.90625 42.050781h-3.96875v1.984375h3.96875zm0 0" fill="url(#d)"/><path d="m11.90625 42.050781h-3.96875v-1.984375h3.96875zm0 0" fill="url(#e)"/><path d="m35.722656 42.050781h3.96875v1.984375h-3.96875zm0 0" fill="url(#f)"/><path d="m9.921875 4.34375h27.785156c1.097657 0 1.984375.890625 1.984375 1.984375v33.738281c0 1.097656-.886718 1.984375-1.984375 1.984375h-27.785156c-1.09375 0-1.984375-.886719-1.984375-1.984375v-33.738281c0-1.09375.890625-1.984375 1.984375-1.984375zm0 0" fill="url(#g)"/><path d="m399.961827 175.101398c-44.247746 0-79.992366 35.74462-79.992366 79.992365v1360.027676c0 44.247745 35.74462 79.992365 79.992366 79.992365h119.988548v-1520.012406zm0 0" fill="url(#i)" stroke="#212121" stroke-linecap="round" stroke-width="11.338583" transform="scale(.0248071)"/><path d="m9.921875 41.9375c-1.097656 0-1.984375-.882812-1.984375-1.984375v-.246094c0 1.097657.886719 1.984375 1.984375 1.984375h27.785156c1.097657 0 1.984375-.886718 1.984375-1.984375v.246094c0 1.101563-.886718 1.984375-1.984375 1.984375zm0 0" fill-opacity=".196078"/><path d="m9.921875 4.457031c-1.097656 0-1.984375.882813-1.984375 1.984375v.246094c0-1.097656.886719-1.984375 1.984375-1.984375h27.785156c1.097657 0 1.984375.886719 1.984375 1.984375v-.246094c0-1.101562-.886718-1.984375-1.984375-1.984375zm0 0" fill="#fff" fill-opacity=".392157"/><path d="m9.921875 4.203125c-1.175781 0-2.125.949219-2.125 2.125v33.738281c0 1.175782.949219 2.125 2.125 2.125h27.785156c1.175781 0 2.125-.949218 2.125-2.125v-33.738281c0-1.175781-.949219-2.125-2.125-2.125zm0 .28125h27.785156c1.023438 0 1.84375.820313 1.84375 1.84375v33.738281c0 1.023438-.820312 1.84375-1.84375 1.84375h-27.785156c-1.023437 0-1.84375-.820312-1.84375-1.84375v-33.738281c0-1.023437.820313-1.84375 1.84375-1.84375zm0 0" fill="#212121"/><path d="m18.355469 14.265625c-.824219 0-1.488281.664063-1.488281 1.488281v10.917969c0 .824219.664062 1.488281 1.488281 1.488281h11.007812l3.675781 3.675782c.621094.621093 1.6875.179687 1.6875-.699219v-3.0625c.582032-.199219.996094-.75.996094-1.402344v-10.917969c0-.824218-.664062-1.488281-1.488281-1.488281zm0 0" fill="url(#j)"/><path d="m18.355469 14.265625c-.824219 0-1.488281.664063-1.488281 1.488281v.496094c0-.824219.664062-1.488281 1.488281-1.488281h15.878906c.824219 0 1.488281.664062 1.488281 1.488281v-.496094c0-.824218-.664062-1.488281-1.488281-1.488281zm0 0" fill-opacity=".235294"/><path d="m16.867188 26.753906v.414063c0 .824219.664062 1.488281 1.488281 1.488281h11.007812l3.675781 3.675781c.621094.621094 1.6875.179688 1.6875-.699219v-.414062c0 .878906-1.066406 1.320312-1.6875.699219l-3.675781-3.675781h-11.007812c-.824219 0-1.488281-.664063-1.488281-1.488282zm18.855468 0c0 .652344-.414062 1.203125-.996094 1.40625v.410156c.582032-.199218.996094-.75.996094-1.402343zm0 0" fill="#fff" fill-opacity=".392157"/><path d="m195.772971-62.847863c-8.790827 0-15.873484 7.082657-15.873484 15.873484v116.447213c0 8.790827 7.082657 15.873484 15.873484 15.873484h117.405455l39.20459 39.20459c6.624367 6.624367 17.998281 1.916483 17.998281-7.457621v-32.663548c6.207741-2.124797 10.623985-7.999236 10.623985-14.956905v-116.447213c0-8.790827-7.082656-15.873484-15.873484-15.873484zm0 0" fill="none" stroke="#212121" stroke-linecap="round" stroke-linejoin="round" stroke-width="3" transform="matrix(.093759 0 0 .093759 0 20.158175)"/></svg>

<svg xmlns="http://www.w3.org/2000/svg" xmlns:xlink="http://www.w3.org/1999/xlink" width="48px" height="48px" viewBox="0 0 48 48" version="1.1">
<defs>
<linearGradient id="linear0" gradientUnits="userSpaceOnUse" x1="31.75304" y1="56.067871" x2="31.75304" y2="58.713959" gradientTransform="matrix(0.75,0,0,0.75,0,0)">
<stop offset="0" style="stop-color:rgb(0%,0%,0%);stop-opacity:0.27451;"/>
<stop offset="1" style="stop-color:rgb(0%,0%,0%);stop-opacity:0;"/>
</linearGradient>
<radialGradient id="radial0" gradientUnits="userSpaceOnUse" cx="450.908936" cy="189.579361" fx="450.908936" fy="189.579361" r="21.166656" gradientTransform="matrix(0.0000002625,-0.117199,-0.210958,-0.00000015,75.219126,95.393)">
<stop offset="0" style="stop-color:rgb(0%,0%,0%);stop-opacity:0.313726;"/>
<stop offset="0.222222" style="stop-color:rgb(0%,0%,0%);stop-opacity:0.27451;"/>
<stop offset="1" style="stop-color:rgb(0%,0%,0%);stop-opacity:0;"/>
</radialGradient>
<radialGradient id="radial1" gradientUnits="userSpaceOnUse" cx="450.908936" cy="189.579361" fx="450.908936" fy="189.579361" r="21.166656" gradientTransform="matrix(-0.0000002625,0.117199,0.210958,0.00000015,-27.589574,-11.291221)">
<stop offset="0" style="stop-color:rgb(0%,0%,0%);stop-opacity:0.313726;"/>
<stop offset="0.222222" style="stop-color:rgb(0%,0%,0%);stop-opacity:0.27451;"/>
<stop offset="1" style="stop-color:rgb(0%,0%,0%);stop-opacity:0;"/>
</radialGradient>
<radialGradient id="radial2" gradientUnits="userSpaceOnUse" cx="450.908936" cy="189.579361" fx="450.908936" fy="189.579361" r="21.166656" gradientTransform="matrix(-0.0000002625,-0.117199,0.210958,-0.00000015,-27.589574,95.393)">
<stop offset="0" style="stop-color:rgb(0%,0%,0%);stop-opacity:0.313726;"/>
<stop offset="0.222222" style="stop-color:rgb(0%,0%,0%);stop-opacity:0.27451;"/>
<stop offset="1" style="stop-color:rgb(0%,0%,0%);stop-opacity:0;"/>
</radialGradient>
<radialGradient id="radial3" gradientUnits="userSpaceOnUse" cx="450.908936" cy="189.579361" fx="450.908936" fy="189.579361" r="21.166656" gradientTransform="matrix(0.0000002625,0.117199,-0.210958,0.00000015,75.219126,-11.291219)">
<stop offset="0" style="stop-color:rgb(0%,0%,0%);stop-opacity:0.313726;"/>
<stop offset="0.222222" style="stop-color:rgb(0%,0%,0%);stop-opacity:0.27451;"/>
<stop offset="1" style="stop-color:rgb(0%,0%,0%);stop-opacity:0;"/>
</radialGradient>
<linearGradient id="linear1" gradientUnits="userSpaceOnUse" x1="306.916656" y1="-25.791676" x2="305.954559" y2="-141.414581" gradientTransform="matrix(0.113024,0,0,0.326118,-8.781019,50.462025)">
<stop offset="0" style="stop-color:rgb(95.686275%,56.078434%,69.411767%);stop-opacity:1;"/>
<stop offset="1" style="stop-color:rgb(97.254902%,73.333335%,81.568629%);stop-opacity:1;"/>
</linearGradient>
<linearGradient id="linear2" gradientUnits="userSpaceOnUse" x1="165.484848" y1="-25.791672" x2="165.484848" y2="-141.414581" gradientTransform="matrix(4.556143,0,0,13.146184,-353.972656,2034.180176)">
<stop offset="0" style="stop-color:rgb(92.54902%,25.098041%,47.843137%);stop-opacity:1;"/>
<stop offset="1" style="stop-color:rgb(94.117647%,38.431373%,57.254905%);stop-opacity:1;"/>
</linearGradient>
<linearGradient id="linear3" gradientUnits="userSpaceOnUse" x1="34.399136" y1="56.067867" x2="34.399136" y2="5.79221" gradientTransform="matrix(0.75,0,0,0.75,0,0)">
<stop offset="0" style="stop-color:rgb(92.54902%,25.098041%,47.843137%);stop-opacity:1;"/>
<stop offset="1" style="stop-color:rgb(94.117647%,38.431373%,57.254905%);stop-opacity:1;"/>
</linearGradient>
</defs>
<g id="surface1">
<path style=" stroke:none;fill-rule:nonzero;fill:url(#linear0);" d="M 11.90625 42.050781 L 35.722656 42.050781 L 35.722656 44.035156 L 11.90625 44.035156 Z M 11.90625 42.050781 "/>
<path style=" stroke:none;fill-rule:nonzero;fill:url(#radial0);" d="M 35.722656 42.050781 L 39.691406 42.050781 L 39.691406 40.066406 L 35.722656 40.066406 Z M 35.722656 42.050781 "/>
<path style=" stroke:none;fill-rule:nonzero;fill:url(#radial1);" d="M 11.90625 42.050781 L 7.941406 42.050781 L 7.941406 44.035156 L 11.90625 44.035156 Z M 11.90625 42.050781 "/>
<path style=" stroke:none;fill-rule:nonzero;fill:url(#radial2);" d="M 11.90625 42.050781 L 7.941406 42.050781 L 7.941406 40.066406 L 11.90625 40.066406 Z M 11.90625 42.050781 "/>
<path style=" stroke:none;fill-rule:nonzero;fill:url(#radial3);" d="M 35.722656 42.050781 L 39.691406 42.050781 L 39.691406 44.035156 L 35.722656 44.035156 Z M 35.722656 42.050781 "/>
<path style=" stroke:none;fill-rule:nonzero;fill:url(#linear1);" d="M 9.921875 4.34375 L 37.707031 4.34375 C 38.804688 4.34375 39.691406 5.230469 39.691406 6.328125 L 39.691406 40.066406 C 39.691406 41.160156 38.804688 42.050781 37.707031 42.050781 L 9.921875 42.050781 C 8.828125 42.050781 7.941406 41.160156 7.941406 40.066406 L 7.941406 6.328125 C 7.941406 5.230469 8.828125 4.34375 9.921875 4.34375 Z M 9.921875 4.34375 "/>
<path style="fill-rule:nonzero;fill:url(#linear2);stroke-width:11.338583;stroke-linecap:round;stroke-linejoin:miter;stroke:rgb(12.941177%,12.941177%,12.941177%);stroke-opacity:1;stroke-miterlimit:4;" d="M 399.961502 175.101256 C 355.713793 175.101256 320.126667 210.845847 320.126667 255.093557 L 320.126667 1615.12013 C 320.126667 1659.367839 355.713793 1695.11243 399.961502 1695.11243 L 519.949953 1695.11243 L 519.949953 175.101256 Z M 399.961502 175.101256 " transform="matrix(0.0248071,0,0,0.0248071,0,0)"/>
<path style=" stroke:none;fill-rule:nonzero;fill:rgb(0%,0%,0%);fill-opacity:0.196078;" d="M 9.921875 41.9375 C 8.824219 41.9375 7.941406 41.054688 7.941406 39.957031 L 7.941406 39.707031 C 7.941406 40.804688 8.824219 41.691406 9.921875 41.691406 L 37.707031 41.691406 C 38.808594 41.691406 39.691406 40.804688 39.691406 39.707031 L 39.691406 39.957031 C 39.691406 41.054688 38.808594 41.9375 37.707031 41.9375 Z M 9.921875 41.9375 "/>
<path style=" stroke:none;fill-rule:nonzero;fill:rgb(100%,100%,100%);fill-opacity:0.392157;" d="M 9.921875 4.457031 C 8.824219 4.457031 7.941406 5.339844 7.941406 6.441406 L 7.941406 6.6875 C 7.941406 5.589844 8.824219 4.703125 9.921875 4.707031 L 37.707031 4.707031 C 38.808594 4.703125 39.691406 5.589844 39.691406 6.6875 L 39.691406 6.441406 C 39.691406 5.339844 38.808594 4.457031 37.707031 4.457031 Z M 9.921875 4.457031 "/>
<path style=" stroke:none;fill-rule:nonzero;fill:rgb(12.941177%,12.941177%,12.941177%);fill-opacity:1;" d="M 9.921875 4.203125 C 8.746094 4.203125 7.800781 5.152344 7.800781 6.328125 L 7.800781 40.066406 C 7.800781 41.242188 8.746094 42.191406 9.921875 42.191406 L 37.707031 42.191406 C 38.882812 42.191406 39.832031 41.242188 39.832031 40.066406 L 39.832031 6.328125 C 39.832031 5.152344 38.882812 4.203125 37.707031 4.203125 Z M 9.921875 4.484375 L 37.707031 4.484375 C 38.730469 4.484375 39.550781 5.304688 39.550781 6.328125 L 39.550781 40.066406 C 39.550781 41.089844 38.730469 41.910156 37.707031 41.910156 L 9.921875 41.910156 C 8.898438 41.910156 8.082031 41.089844 8.082031 40.066406 L 8.082031 6.328125 C 8.082031 5.304688 8.898438 4.484375 9.921875 4.484375 Z M 9.921875 4.484375 "/>
<path style=" stroke:none;fill-rule:nonzero;fill:url(#linear3);" d="M 18.355469 14.269531 C 17.53125 14.269531 16.871094 14.929688 16.871094 15.753906 L 16.871094 26.671875 C 16.871094 27.496094 17.53125 28.160156 18.355469 28.160156 L 29.363281 28.160156 L 33.039062 31.832031 C 33.660156 32.457031 34.726562 32.015625 34.726562 31.136719 L 34.726562 28.074219 C 35.304688 27.871094 35.722656 27.324219 35.722656 26.671875 L 35.722656 15.753906 C 35.722656 14.929688 35.058594 14.269531 34.234375 14.269531 Z M 18.355469 14.269531 "/>
<path style=" stroke:none;fill-rule:nonzero;fill:rgb(0%,0%,0%);fill-opacity:0.235294;" d="M 18.355469 14.269531 C 17.53125 14.269531 16.871094 14.929688 16.871094 15.753906 L 16.871094 16.25 C 16.871094 15.425781 17.53125 14.761719 18.355469 14.761719 L 34.234375 14.761719 C 35.058594 14.761719 35.722656 15.425781 35.722656 16.25 L 35.722656 15.753906 C 35.722656 14.929688 35.058594 14.269531 34.234375 14.269531 Z M 18.355469 14.269531 "/>
<path style=" stroke:none;fill-rule:nonzero;fill:rgb(100%,100%,100%);fill-opacity:0.392157;" d="M 16.871094 26.753906 L 16.871094 27.167969 C 16.871094 27.988281 17.53125 28.65625 18.355469 28.65625 L 29.363281 28.65625 L 33.039062 32.328125 C 33.660156 32.953125 34.726562 32.511719 34.726562 31.632812 L 34.726562 31.21875 C 34.726562 32.097656 33.660156 32.539062 33.039062 31.917969 L 29.363281 28.242188 L 18.355469 28.242188 C 17.53125 28.242188 16.871094 27.578125 16.871094 26.753906 Z M 35.722656 26.753906 C 35.722656 27.402344 35.304688 27.957031 34.726562 28.160156 L 34.726562 28.574219 C 35.304688 28.371094 35.722656 27.816406 35.722656 27.167969 Z M 35.722656 26.753906 "/>
<path style="fill:none;stroke-width:3;stroke-linecap:round;stroke-linejoin:round;stroke:rgb(12.941177%,12.941177%,12.941177%);stroke-opacity:1;stroke-miterlimit:4;" d="M 195.814542 -62.847825 C 186.982057 -62.847825 179.941066 -55.765172 179.941066 -46.974349 L 179.941066 69.47281 C 179.941066 78.263633 186.982057 85.346287 195.814542 85.346287 L 313.17828 85.346287 L 352.382851 124.550858 C 359.048878 131.175222 370.381124 126.467341 370.381124 117.09324 L 370.381124 84.429708 C 376.547199 82.304912 381.005104 76.430476 381.005104 69.47281 L 381.005104 -46.974349 C 381.005104 -55.765172 373.92245 -62.847825 365.131627 -62.847825 Z M 195.814542 -62.847825 " transform="matrix(0.093759,0,0,0.093759,0,20.158174)"/>
</g>
</svg>
